X:1
T:Title
%%score [ ( 1 2 ) ( 3 4 ) ]
L:1/8
Q:1/4=120
M:3/2
K:C
V:1 treble nm="Midi_74"
V:2 treble 
V:3 bass nm="Midi_74"
V:4 bass 
V:1
[K:D]"^John Lydgate\n(c.1370-c.1451)""^Solo" (3A2 A2 A2 d4!>(! x4-!>)! | %1
w: Tar- ry no long- er,|
"^Vox ultima crucis""^Vox ultima crucis" x4 z4"^Full" (3A2 A2 A2 | %2
w: tar- ry no|
 d4 A4"^Henry Walford Davies\n(1869-1941)" G2 B2 |[M:3/2] A3 F D4 EF GA | F3 F GA Bc d2 B2 | %5
w: long- er; toward thine|her- i- tage haste * on thy|way and be * of * right good|
 A6 A2 B2 =c2 | B2 G2 AB =c2 B3 G | D4!p! !tenuto!D4 E4 | .G2 !tenuto!G4 F2 E2 D2 | E2 FD E6 A2 | %10
w: cheer. Go each day|on- ward on * thy pil- grim-|age. Think how|short time thou shalt a-|bide thee * here. Thy|
 A2 A2!f! e6 d2 | =c2 B2!>(! A2 BG A4!>)! |!mf! A4 B2 A2 d2 B2 | G4 FG AB!>(! A3 F | %14
w: place is built a-|bove the star- re's * clear;|none earth- ly pal- ace|wrought in * so * state- ly|
 !fermata!A8!>)!!pp! x4 | E6 x6 | x12 | x12 | x2"^Full"!ppp! F2 E6 E2 | E4 (E4 F4) | G2 E4 G2 F4- | %21
w: wise.|on,|||Come on, my|friend, my *|bro- ther most dear!|
!<(! F4 (F4!<)! A4) | (e4 d4) B4 |!>(! G4 A4!>)! B4 | D4 z2 (A4 G2) | %25
w: * For *|thee * I|off- 'red my|blood in *|
 F3 F F4!p!"^Solo" (3A2 A2 A2 |!>(! d4 A6!>)! !fermata!z2 |] %27
w: sa- cri- fice. Tar- ry no|long- er!|
V:2
[K:D] x8 A4- | A4 z4 (3D2 D2 C2 | D4 F4 G2 G2 |[M:3/2] F3 D A,4 E2 DE | F3 D D2 D2 D2 G2 | %5
w: er,|||||
 E6 F2 G2 G2 | G2 D2 EF G2 G3 D | B,4 G,4 =C4 | B,2 B,4 D2 B,2 B,2 | B,C DB, C6 A2 | A2 A2 F6 G2 | %11
w: ||||||
 A2 G2 F2 GE F4 | F4 F2 FE D2 G2 | G4 FE DC D3 D | E8 E4 | x6 E2 E4- | E2 z2 (E4 F4) | %17
w: |||* Come|my friend,|* my *|
 G2 E4 G2 F4- | F2 D2 B,6 CA, | B,4 (B,4 D4) | E2 =C4 D2 D4- | D4 D8 | (F4 G4) D4 | D4 D4 D4 | %24
w: bro- ther most dear!|||||||
 D4 z2 D6 | D3 D D4 x4 | x4 x4 x4 |] %27
w: |||
V:3
[K:D] z12 | z4 z4 (3F,2 F,2 G,2 | A,4 D4 D2 D2 |[M:3/2] D3 A, F,4 A,3 z | A,3 A, DC B,A, G,2 D2 | %5
w: |||* * * haste,|haste, * * * * * * *|
 C6 D2 D2 E2 | D2 B,2 =CD E2 D3 B, | G,4!p! G,4 G,4 | %8
w: |||
"^This edition  Andrew Sims 2018" G,2 G,4 A,2 G,2 G,2 | G,2 A,B, A,6 A,2 | A,2 A,2!f! =C6 D2 | %11
w: |||
 E2 E2!>(! F2 G2 D4!>)! |!mf! D4 D2 D=C B,2 D2 | (E2 D2) CB, A,G,!>(! A,3 B, | C8!>)!!pp!"^," A,4 | %15
w: ||||
 B,6 A,2 B,4- | B,2 z2 (B,4 D4) | E2 =C4 D2 A,4- | A,2!ppp! A,2 ^G,6 A,2 | ^G,4 (G,4 A,4) | %20
w: |||||
 =C2 G,4 B,2 A,4- |!<(! A,4 D8!<)! | D8 G,4 | %23
w: |||
"^Original words of poem:""^Tarye no lenger; toward thyn heritage ?Hast on thy weye, and be of ryght good chere. ?Go eche day onward on thy pylgrymage; ?Thynke howe short tyme thou hast abyden here. ?Thy place is bygged above the sterres clere, ?Noon erthly palys wrought in so statly wyse. ?Come on, my frend, my brother most entere! ?For the I offered my blood in sacryfice."!>(! G,4 F,4!>)! E,4 | %24
w: |
 A,4 z2 (=C4 B,2) | A,3 A, A,4 z4 | !fermata!z12 |] %27
w: |||
V:4
[K:D] z12 | z4 z4 (3D,2 D,2 E,2 | F,4 D,4 B,,2 G,,2 |[M:3/2] D,3 D, D,4 C,2 B,,C, | %4
w: |||* * * haste on thy|
 D,3 D, B,A, G,F, E,2 E,2 | A,6 D,2 G,2 E,F, | G,2 G,F, E,D, =C,2 G,3 G,, | G,,4 B,,4 =C,4 | %8
w: way * * * * * * *||||
 E,2 E,4 D,2 E,2 G,2 | E,2 D,F, A,4 x2 A,,2 | A,,2 A,,2 [A,,A,]6 [B,,B,]2 | %11
w: |||
 [=C,=C]2 [C,C]2 [D,D]8 | D,4 B,,2 D,2 B,2 G,2 | E,4 A,G, F,E, F,3 D, | !fermata!A,,8 C,4 | %15
w: bove the stars||||
 E,6 C,2 E,4- | E,2 z2 (E,4 D,4) | =C,2 C,4 B,,2 D,4- | D,2 D,2 E,6 C,2 | E,4 (E,4 D,4) | %20
w: |||||
 =C,2 C,4 B,,2 D,4- | D,4 (D,4 F,4) | (=C4 B,4) G,4 | B,,4 A,,4 G,,4 | F,,4 z2 (F,4 G,2) | %25
w: |||||
 D,3 D, D,4 z4 | z12 |] %27
w: ||

